priv/static/svgs/icons_new/sport-fencing.svg

<svg width="32" height="32" viewBox="0 0 32 32" fill="none" xmlns="http://www.w3.org/2000/svg">
<path d="M18.4286 13.3273L26.601 5M17.2721 14.5012L19.4232 12.3104M11.7172 20.1587L15.9229 15.8753M9.93622 23.437L6.6634 26.7703C6.36271 27.0766 5.87314 27.0766 5.57245 26.7703L5.22551 26.417C4.92483 26.1107 4.92483 25.6121 5.22551 25.3059L7.36499 23.1269M20.279 20.1587L5.39898 5M23.5017 21.9726L26.7745 25.3059C27.0752 25.6121 27.0752 26.1107 26.7745 26.417L26.4275 26.7703C26.1269 27.0766 25.6373 27.0766 25.3366 26.7703L23.147 24.5403M11.721 20.1587C13.3016 21.7684 13.3709 23.5156 12.1991 25.5061L6.47065 19.6719C8.42124 18.4784 10.1405 18.549 11.721 20.1587ZM20.2828 20.1587C21.8633 18.549 23.5788 18.4784 25.5332 19.6719L19.8048 25.5061C18.6329 23.5195 18.6984 21.7684 20.2828 20.1587Z" stroke="black" stroke-miterlimit="10"/>
</svg>

<svg width="32" height="32" viewBox="0 0 32 32" fill="none" xmlns="http://www.w3.org/2000/svg">
  <symbol id="item" viewBox="0 0 32 32" stroke-width="1" fill="none">
    <path d="M18.429 13.327 26.6 5m-9.329 9.501 2.151-2.19m-7.706 7.848 4.206-4.284m-5.987 7.562L6.663 26.77a.762.762 0 0 1-1.09 0l-.347-.353a.797.797 0 0 1 0-1.111l2.139-2.18m12.914-2.967L5.399 5m18.103 16.973 3.273 3.333c.3.306.3.805 0 1.111l-.348.353a.762.762 0 0 1-1.09 0l-2.19-2.23M11.721 20.16c1.58 1.61 1.65 3.357.478 5.347l-5.728-5.834c1.95-1.194 3.67-1.123 5.25.487Zm8.562 0c1.58-1.61 3.296-1.68 5.25-.487l-5.728 5.834c-1.172-1.986-1.107-3.738.478-5.347Z" stroke="currentColor" stroke-miterlimit="10"/>
  </symbol>
</svg>
